X:1
T:Arkansas Traveler
M:C|
L:1/8
K:D
"D"DFED "(Bm)"B,2 B,B,|"A7"A,2A,2D2"D"DD|"A7"E2EE "D"F2FF|"A7"EFED B,2A,2|!
"D"DFED "(Bm)"B,2 B,B,|"A7"A,2A,2D2"D"(3(ABc|dc)dA "G"B-dAG|"A7"F-DEF "D"D4:||!
f(g|"D"ag)f(a "A7"gf)e(g|"D"fe)df "A7"edBA|"D"d-cdf- edeg|f-edf "A7"e2 f(g|!
"D"ag)f(a "A7"gf)e(g|"D"fe)df "A7"edBA|"D"d-cdA "G"B-dAG|"A7"F-DEF "D"D4:||!
